svgs/thin/message-bot.svg

<svg xmlns="http://www.w3.org/2000/svg" viewBox="0 0 640 512"><!--! Font Awesome Pro 6.6.0 by @fontawesome - https://fontawesome.com License - https://fontawesome.com/license (Commercial License) Copyright 2024 Fonticons, Inc. --><path d="M224 400c8.8 0 16 7.2 16 16l0 80 123.7-92.8c2.8-2.1 6.1-3.2 9.6-3.2L480 400c26.5 0 48-21.5 48-48l0-288c0-26.5-21.5-48-48-48L160 16c-26.5 0-48 21.5-48 48l0 288c0 26.5 21.5 48 48 48l64 0zM96 64c0-35.3 28.7-64 64-64L480 0c35.3 0 64 28.7 64 64l0 120 33 0c3.6-13.8 16.1-24 31-24c17.7 0 32 14.3 32 32s-14.3 32-32 32c-14.9 0-27.4-10.2-31-24l-33 0 0 152c0 35.3-28.7 64-64 64l-106.7 0L249.6 508.8c-4.8 3.6-11.3 4.2-16.8 1.5s-8.8-8.2-8.8-14.3l0-64 0-16-16 0-48 0c-35.3 0-64-28.7-64-64l0-152-33 0c-3.6 13.8-16.1 24-31 24c-17.7 0-32-14.3-32-32s14.3-32 32-32c14.9 0 27.4 10.2 31 24l33 0L96 64zM32 208a16 16 0 1 0 0-32 16 16 0 1 0 0 32zm592-16a16 16 0 1 0 -32 0 16 16 0 1 0 32 0zM176 96c-8.8 0-16 7.2-16 16l0 160c0 8.8 7.2 16 16 16l288 0c8.8 0 16-7.2 16-16l0-160c0-8.8-7.2-16-16-16L176 96zm-32 16c0-17.7 14.3-32 32-32l288 0c17.7 0 32 14.3 32 32l0 160c0 17.7-14.3 32-32 32l-288 0c-17.7 0-32-14.3-32-32l0-160zm80 56a24 24 0 1 0 0 48 24 24 0 1 0 0-48zm40 24a40 40 0 1 1 -80 0 40 40 0 1 1 80 0zm128 0a24 24 0 1 0 48 0 24 24 0 1 0 -48 0zm24 40a40 40 0 1 1 0-80 40 40 0 1 1 0 80z"/></svg>

<svg xmlns="http://www.w3.org/2000/svg" viewBox="0 0 640 512"><!--! Font Awesome Pro 6.4.2 by @fontawesome - https://fontawesome.com License - https://fontawesome.com/license (Commercial License) Copyright 2023 Fonticons, Inc. --><path d="M224 400c8.8 0 16 7.2 16 16v80l123.7-92.8c2.8-2.1 6.1-3.2 9.6-3.2H480c26.5 0 48-21.5 48-48V64c0-26.5-21.5-48-48-48H160c-26.5 0-48 21.5-48 48V352c0 26.5 21.5 48 48 48h64zM96 64c0-35.3 28.7-64 64-64H480c35.3 0 64 28.7 64 64V184h33c3.6-13.8 16.1-24 31-24c17.7 0 32 14.3 32 32s-14.3 32-32 32c-14.9 0-27.4-10.2-31-24H544V352c0 35.3-28.7 64-64 64H373.3L249.6 508.8c-4.8 3.6-11.3 4.2-16.8 1.5s-8.8-8.2-8.8-14.3V432 416H208 160c-35.3 0-64-28.7-64-64V200H63c-3.6 13.8-16.1 24-31 24c-17.7 0-32-14.3-32-32s14.3-32 32-32c14.9 0 27.4 10.2 31 24H96V64zM32 208a16 16 0 1 0 0-32 16 16 0 1 0 0 32zm592-16a16 16 0 1 0 -32 0 16 16 0 1 0 32 0zM176 96c-8.8 0-16 7.2-16 16V272c0 8.8 7.2 16 16 16H464c8.8 0 16-7.2 16-16V112c0-8.8-7.2-16-16-16H176zm-32 16c0-17.7 14.3-32 32-32H464c17.7 0 32 14.3 32 32V272c0 17.7-14.3 32-32 32H176c-17.7 0-32-14.3-32-32V112zm80 56a24 24 0 1 0 0 48 24 24 0 1 0 0-48zm40 24a40 40 0 1 1 -80 0 40 40 0 1 1 80 0zm128 0a24 24 0 1 0 48 0 24 24 0 1 0 -48 0zm24 40a40 40 0 1 1 0-80 40 40 0 1 1 0 80z"/></svg>
